!!!OTL: 197d. Der todte Braeutigam.
!!!ODT: 1848
!!!ARE: Europa, Mitteleuropa, Deutschland, Baden, Merzhausen
!!!SCT: E0197A
!!!TXL: @@DE
!!!YEM: Copyright 1995, estate of Helmut Schaffrath.
**kern	**text
*ICvox	*
*M6/4	*
*k[b-e-a-]	*
*E-:	*
!LO:TX:a:t=Aus Merʒhauſen (Baden) 1848.	!
{8e-L	Es
8gJ	.
=1	=1
(4.b-	gieng
8cc)	.
4b-	ein
(4g	Kna-
4f)	-be
4e-	ſpa-
=2	=2
2.cc	-ʒie-
4b-	-ren,
4r}	.
{8gL	ſeins
8a-J	.
=3	=3
(4.b-	Lieb-
8cc)	-chen
4b-	ʒum
(4a-	Fen-
4f)	.
4b-	-ſter-
=4	=4
[2.g	-lein,
4g]	.
4r}	.
{8e-L	Feins
8gJ	.
=5	=5
(4.b-	Lieb-
8cc)	.
4b-	-chen
(4g	biſt
4f)	.
4e-	du
=6	=6
2.cc	drin-
4b-	-nen?
4r}	.
{8gL	Steh
8a-J	.
=7	=7
(4.b-	auf
8cc)	.
4b-	und
(4a-	laß
4f)	mich
4b-	hi-
=8	=8
[2.g	-nein!
4g]	.
4r}	.
{8gL	Steh
8a-J	.
=9	=9
(4.b-	auf
8cc)	.
4b-	und
4a-	laß
4f	mich
4b-	hi-
=10	=10
[2.g	-nein!
4g]	.
4r}	.
==	==
!!!AGN: erzaehlendes Volks - Lied, Tod, Toten - Sage, Grabesstimme
!!!ONB: ESAC (Essen Associative Code) Database: ERK1
!!!AMT: compound duple
!!!AIN: vox
!!!EED: Helmut Schaffrath
!!!EEV: 1.0
!!!GTL: Todtensagen (Todesahnung, Geisterliebe, Grabesstimmen)
!!!URL-scan: https://rosdok.uni-rostock.de/mcrviewer/recordIdentifier/rosdok_ppn745146120/iview2/phys_0663.iview2?x=-128.7727644188933&y=976.5138104455546&scale=0.5870222003877484&rotation=0&layout=singlePageLayout
!!!ENC: Anna Maria Matuszewska
!!!EEV: 2024/05/12
*-	*-
